shared/images/iconfont/82-kb-iconfont-reacji-16.svg

<?xml version="1.0" encoding="UTF-8"?>
<svg width="16px" height="16px" viewBox="0 0 16 16" version="1.1" xmlns="http://www.w3.org/2000/svg" xmlns:xlink="http://www.w3.org/1999/xlink">
    <!-- Generator: sketchtool 57.1 (101010) - https://sketch.com -->
    <title>62A5A01A-5FA2-47E4-9AA0-EB7A9648303A</title>
    <desc>Created with sketchtool.</desc>
    <g id="Symbols" stroke="none" stroke-width="1" fill="none" fill-rule="evenodd">
        <g id="82-kb-iconfont-reacji-16">
            <g>
                <polygon id="icon-area" opacity="0" points="0 0 16 0 16 16 0 16"></polygon>
                <path d="M14,8 C14,4.6862915 11.3137085,2 8,2 C4.6862915,2 2,4.6862915 2,8 C2,11.3137085 4.6862915,14 8,14 C8.52768425,14 9.02769373,14.4408019 9.01252257,15.0027606 C8.9973514,15.5647193 8.57697966,15.9958606 8,16 C3.58183605,16.0316972 2.27373675e-13,12.418278 2.27373675e-13,8 C2.27373675e-13,3.581722 3.581722,0 8,0 C12.418278,0 16,3.581722 16,8 C16,8.55372722 15.6471321,9.00577443 15.0285567,9 C14.4099813,8.99422557 14,8.55833867 14,8 Z M4.20014346,10.7178127 C3.93777838,10.4447352 3.93270481,9.99763063 4.18879698,9.71791145 C4.44488915,9.43819227 4.86567301,9.43123313 5.12983492,9.70234809 C6.07917265,10.6596831 7.31748932,10.9845529 8.5570586,10.8786335 C9.03462572,10.8378261 9.49429563,11.2383433 9.35647314,11.7085951 C9.22606461,12.1535504 8.8694086,12.281051 8.51472496,12.3093985 C6.97410962,12.4325298 5.39677635,11.9318437 4.20014346,10.7178127 Z M6,6 C6.55228475,6 7,6.44771525 7,7 C7,7.55228475 6.55228475,8 6,8 C5.44771525,8 5,7.55228475 5,7 C5.00002577,6.44772593 5.44772593,6.00002577 6,6 Z M13,10 C13.5522847,10 14,10.4477153 14,11 L14,11 L14,12 L15,12 C15.5522847,12 16,12.4477153 16,13 C16,13.5522847 15.5522847,14 15,14 L15,14 L14,14 L14,15 C14,15.5522847 13.5522847,16 13,16 C12.4477153,16 12,15.5522847 12,15 L12,15 L12,14 L11,14 C10.4477153,14 10,13.5522847 10,13 C10,12.4477153 10.4477153,12 11,12 L11,12 L12,12 L12,11 C12,10.4477153 12.4477153,10 13,10 Z M9.99999394,6 C10.5515812,6 10.998731,6.44714983 10.998731,6.99873711 C10.9987053,7.55031372 10.5515706,7.99744847 9.99999394,7.99747421 C9.44840667,7.99747421 9.00125684,7.55032438 9.00125684,6.99873711 C9.00125684,6.44714983 9.44840667,6 9.99999394,6 Z" id="Shape" fill="#000000"></path>
            </g>
        </g>
    </g>
</svg>

<svg xmlns="http://www.w3.org/2000/svg" width="16" height="16" viewBox="0 0 16 16">
    <path fill="#000" fill-rule="evenodd" d="M14 8a6 6 0 1 0-6 6c.528 0 1.028.44 1.013 1.003A.999.999 0 0 1 8 16c-4.418.032-8-3.582-8-8a8 8 0 1 1 16 0c0 .554-.353 1.006-.971 1C14.41 8.994 14 8.558 14 8zm-9.8 2.718a.74.74 0 0 1-.011-1 .64.64 0 0 1 .94-.016c.95.958 2.188 1.283 3.428 1.177.478-.041.937.36.8.83-.13.445-.488.572-.842.6-1.54.124-3.118-.377-4.315-1.591zM6 6a1 1 0 1 1 0 2 1 1 0 0 1 0-2zm7 4a1 1 0 0 1 1 1v1h1a1 1 0 0 1 0 2h-1v1a1 1 0 0 1-2 0v-1h-1a1 1 0 0 1 0-2h1v-1a1 1 0 0 1 1-1zm-3-4a.999.999 0 1 1 0 1.997A.999.999 0 0 1 10 6z"/>
</svg>
